config/includes.chroot/usr/share/icons/Tela-circle/32/devices/media-floppy.svg

<svg width="32" height="32" version="1" xmlns="http://www.w3.org/2000/svg" xmlns:xlink="http://www.w3.org/1999/xlink">
 <circle cx="16" cy="16" r="14" fill="#4d4d4d" stroke-width=".53846" style="paint-order:stroke markers fill"/>
 <path d="m6.375 16c-0.76175 0-1.375 0.5575-1.375 1.25v5.668a13 13 0 0 0 6.0078 5.082h9.9648a13 13 0 0 0 6.0273-5.1016v-5.6484c0-0.6925-0.61325-1.25-1.375-1.25h-19.25z" fill="#fff" stroke-width=".97382"/>
 <path d="m5.7598 24a13 13 0 0 0 10.24 5 13 13 0 0 0 10.229-5h-20.469z" fill="#ffae3f" stroke-width="1.3772"/>
 <path d="m16 3a13 13 0 0 0-6 1.4727v6.7969c0 0.8316 0.62662 1.5 1.4062 1.5h15.188c0.7785 0 1.4062-0.6684 1.4062-1.5v-0.24219a13 13 0 0 0-12-8.0273zm3.1895 1.4453a12 12 0 0 1 6.8105 4.9355v0.61914c0 0.554-0.446 1-1 1h-5c-0.554 0-1-0.446-1-1v-5c0-0.2103 0.079406-0.394 0.18945-0.55469z" fill="#fff" opacity=".75" stroke-width="1.0788"/>
</svg>

<svg width="32" height="32" version="1" xmlns="http://www.w3.org/2000/svg"><circle cx="16" cy="16" r="14" fill="#4d4d4d" style="paint-order:stroke markers fill"/><path d="M6.375 16C5.613 16 5 16.557 5 17.25v5.668A13 13 0 0 0 11.008 28h9.965A13 13 0 0 0 27 22.898V17.25c0-.693-.613-1.25-1.375-1.25H6.375z" fill="#fff"/><path d="M5.76 24A13 13 0 0 0 16 29a13 13 0 0 0 10.229-5H5.759z" fill="#ffae3f"/><path d="M16 3a13 13 0 0 0-6 1.473v6.797c0 .831.627 1.5 1.406 1.5h15.188c.779 0 1.406-.669 1.406-1.5v-.243A13 13 0 0 0 16 3zm3.19 1.445A12 12 0 0 1 26 9.381V10c0 .554-.446 1-1 1h-5c-.554 0-1-.446-1-1V5c0-.21.08-.394.19-.555z" fill="#fff" opacity=".75"/></svg>
